icons/factory_worker_fill.svg

<svg width="48" height="48" viewBox="0 0 48 48" fill="none" xmlns="http://www.w3.org/2000/svg">
<path d="M15.319 13.2152C16.0016 11.0627 17.7285 9.28313 20 8.30808V11C20 11.5523 20.4477 12 21 12C21.5523 12 22 11.5523 22 11V7C22 6.44772 22.4477 6 23 6H25C25.5523 6 26 6.44772 26 7V11C26 11.5523 26.4477 12 27 12C27.5523 12 28 11.5523 28 11V8.30808C30.3036 9.29693 32.0472 11.1133 32.7094 13.3068C32.453 13.5155 32.0244 13.7662 31.3547 14.0106C29.8625 14.5549 27.3604 15 23.4737 15C20.6753 15 18.4256 14.564 16.9085 14.0106C16.1758 13.7433 15.6496 13.4615 15.319 13.2152Z" fill="black"/>
<path fill-rule="evenodd" clip-rule="evenodd" d="M32.0401 15.8894C32.9253 15.5665 33.6225 15.1784 34.1189 14.7324C34.686 15.275 35 15.8725 35 16.5C35 17.698 33.8557 18.7866 31.9898 19.593C31.9966 19.7278 32 19.8635 32 20C32 24.4183 28.4183 28 24 28C19.5817 28 16 24.4183 16 20C16 19.8635 16.0034 19.7278 16.0102 19.593C14.1443 18.7866 13 17.698 13 16.5C13 15.8506 13.3363 15.2333 13.9415 14.6757C13.9792 14.7069 14.0168 14.7369 14.0539 14.7657C14.5982 15.1871 15.3418 15.5679 16.2231 15.8894C17.9954 16.536 20.4826 17 23.4737 17C27.4817 17 30.2428 16.5451 32.0401 15.8894ZM18.0061 20.2739C18.1493 23.4605 20.7781 26 24 26C27.2219 26 29.8507 23.4605 29.9939 20.2739C28.2696 20.7332 26.211 21 24 21C21.789 21 19.7304 20.7332 18.0061 20.2739Z" fill="black"/>
<path fill-rule="evenodd" clip-rule="evenodd" d="M6 42L27 42V30.5L25 32V35.8969C24.7954 35.9494 24.4749 36 24 36C23.5251 36 23.2046 35.9494 23 35.8969V32.2223L18.3533 28.6081C12.52 29.7274 6 32.3389 6 36V42ZM13 40L21 40V35.1805L14.4748 36.268L16.3506 31.1096C15.1853 31.4135 14.048 31.773 13 32.1806V40ZM8 40L11 40V33.0789L10.9258 33.118C9.86246 33.6816 9.08395 34.2565 8.59368 34.7989C8.1146 35.329 8 35.7218 8 36V40Z" fill="black"/>
<path d="M32.5704 25.6506C33.1481 25.0608 33.9501 25.6553 33.7737 26.4618L33.7479 26.5796C33.3636 28.3365 34.7016 29.9988 36.5 29.9988C38.2984 29.9988 39.6364 28.3365 39.2521 26.5796L39.2263 26.4617C39.0499 25.6553 39.8519 25.0608 40.4296 25.6506C41.4011 26.6425 42 28.0007 42 29.4988C42 31.4649 40.9683 33.1901 39.4168 34.1625C39.1383 34.3371 39 34.6714 39 35V40C39 41.1046 38.1046 42 37 42H36C34.8954 42 34 41.1046 34 40V35C34 34.6714 33.8617 34.3371 33.5832 34.1625C32.0317 33.1901 31 31.4649 31 29.4988C31 28.0007 31.5989 26.6425 32.5704 25.6506Z" fill="black"/>
</svg>

<svg
  xmlns="http://www.w3.org/2000/svg"
  width="24"
  height="24"
  viewBox="0 0 24 24"
  fill="none"
  stroke="currentColor"
  stroke-width="2"
  stroke-linecap="round"
  stroke-linejoin="round"
>
  <path d="M15.319 13.215c.683-2.152 2.41-3.932 4.681-4.907V11a1 1 0 1 0 2 0V7a1 1 0 0 1 1-1h2a1 1 0 0 1 1 1v4a1 1 0 1 0 2 0V8.308c2.304.989 4.047 2.805 4.71 4.999-.257.208-.686.46-1.355.704-1.492.544-3.995.989-7.881.989-2.799 0-5.048-.436-6.565-.99-.733-.267-1.26-.549-1.59-.795" />
  <path
    fill-rule="evenodd"
    d="M32.04 15.89c.885-.324 1.583-.712 2.079-1.158.567.543.881 1.14.881 1.768 0 1.198-1.144 2.287-3.01 3.093q.01.202.01.407a8 8 0 1 1-15.99-.407C14.144 18.787 13 17.698 13 16.5c0-.65.336-1.267.941-1.824l.113.09c.544.421 1.288.802 2.17 1.123 1.771.647 4.259 1.111 7.25 1.111 4.008 0 6.769-.455 8.566-1.11m-14.034 4.384a6 6 0 0 0 11.988 0C28.27 20.734 26.21 21 24 21s-4.27-.267-5.994-.726"
    clip-rule="evenodd"
  />
  <path
    fill-rule="evenodd"
    d="M6 42h21V30.5L25 32v3.897A4 4 0 0 1 24 36c-.475 0-.795-.05-1-.103v-3.675l-4.647-3.614C12.52 29.728 6 32.338 6 36zm7-2h8v-4.82l-6.525 1.088 1.876-5.158A31 31 0 0 0 13 32.18zm-5 0h3v-6.921l-.074.039c-1.064.564-1.842 1.139-2.332 1.68C8.114 35.33 8 35.723 8 36z"
    clip-rule="evenodd"
  />
  <path d="M32.57 25.65c.578-.59 1.38.005 1.204.812l-.026.118a2.817 2.817 0 1 0 5.504 0l-.026-.118c-.176-.807.626-1.401 1.204-.811A5.48 5.48 0 0 1 42 29.499a5.5 5.5 0 0 1-2.583 4.664c-.279.174-.417.508-.417.837v5a2 2 0 0 1-2 2h-1a2 2 0 0 1-2-2v-5c0-.329-.138-.663-.417-.837A5.5 5.5 0 0 1 31 29.499c0-1.498.599-2.857 1.57-3.848" />
</svg>
